X:341
T:
R:polska
S:Ur von Baumgartens samling, Visby.
O:Gotland, Visby
M:3/4
L:1/16
K:F
FGAG F2A2 c4|Acfa gbge fafc|cfaf cfaf fedc|cfaf cgbg fedc|c2Ac c2Ac c2f2|
FGAG FEFG A2F2|c2Ac c2Ac cfaf|cBAG G2F2 F4::c2de fefa g^fge|c=Bcd efge f4|
c2de fefa g^fge|c=Bcd efge f4|c2Ac c2Ac c2f2|FGAG FEFG A2F2|
c2Ac c2Ac cfaf|cBAG G2F2 F4:|

